X:1
T: Jack Nolan
C:
R:Reel
Q: 232
K:Em
M:4/4
L:1/8
|:e3d Bd dg|ed Bc dB GB|ef ed Bd dg|ed gd BA ((3Bcd) |
e3d Bd dg|ed Bc dB GB|ef ed Bd dg|ed gd BA ((3Bcd) |
g2 eg fd ef|gf gb ag ef|g2 eg fd ed|BA GA ((3Bcd) ef|
g2 bg fd ef|gf gb a2 ga|bg af gf ed|BA ((3Bcd) e2 e2:|
